; HEADER_BLOCK_START
; generated by OrcaSlicer 2.4.2 on 2026-07-15 at 11:55:26
; total layer number: 9
; filament_density: 1.04
; filament_diameter: 1.75
; max_z_height: 3.60
; filament: 1
; HEADER_BLOCK_END

; THUMBNAIL_BLOCK_START

;
; THUMBNAIL_BLOCK_END

; THUMBNAIL_BLOCK_START

;
; THUMBNAIL_BLOCK_END

; external perimeters extrusion width = 0.82mm
; perimeters extrusion width = 0.82mm
; infill extrusion width = 0.82mm
; solid infill extrusion width = 0.82mm
; top infill extrusion width = 0.82mm
; first layer extrusion width = 0.82mm

; EXECUTABLE_BLOCK_START
EXCLUDE_OBJECT_DEFINE NAME=Part_1_id_0_copy_0 CENTER=150,150 POLYGON=[[126,105],[174,105],[174,195],[126,195],[126,105]]
M73 P0 R13
M106 S0
M106 P2 S0
;TYPE:Custom
START_PRINT EXTRUDER_TEMP=260 BED_TEMP=105
T0
M204 S2000
M104 S260
G1 Z3 F600
M83
G92 E0
G1 Z1 F600
M73 P14 R11
G90
G21
M83 ; use relative distances for extrusion
; Filament gcode
M106 S0
M106 P2 S0
;LAYER_CHANGE
;Z:0.4
;HEIGHT:0.4
;BEFORE_LAYER_CHANGE
;0.4
G92 E0

G1 E-2 F1800
;AFTER_LAYER_CHANGE
;0.4
;_SET_FAN_SPEED_CHANGING_LAYER
SET_VELOCITY_LIMIT ACCEL=500 ACCEL_TO_DECEL=500
SET_VELOCITY_LIMIT SQUARE_CORNER_VELOCITY=6
SET_VELOCITY_LIMIT ACCEL=10000 ACCEL_TO_DECEL=10000
G1 X122.899 Y110.96 F30000
G1 Z.8
G1 Z.4
G1 E2 F1800
SET_VELOCITY_LIMIT ACCEL=500 ACCEL_TO_DECEL=500
;TYPE:Skirt
;WIDTH:0.82
G1 F2647.715
G1 X122.899 Y105 E.67384
G1 X123.292 Y103.488 E.17664
G1 X124.373 Y102.36 E.17664
G1 X126 Y101.899 E.19118
G1 X174 Y101.899 E5.42671
G1 X175.512 Y102.292 E.17664
G1 X176.64 Y103.373 E.17664
G1 X177.101 Y105 E.19118
G1 X177.101 Y195 E10.17508
G1 X176.708 Y196.512 E.17664
G1 X175.627 Y197.64 E.17664
G1 X174 Y198.101 E.19118
G1 X126 Y198.101 E5.42671
G1 X124.488 Y197.708 E.17664
M73 P15 R11
G1 X123.36 Y196.627 E.17664
G1 X122.899 Y195 E.19118
G1 X122.899 Y111.04 E9.49219
SET_VELOCITY_LIMIT ACCEL=10000 ACCEL_TO_DECEL=10000
G1 X123.633 Y111.04 F30000
SET_VELOCITY_LIMIT ACCEL=500 ACCEL_TO_DECEL=500
G1 F2647.715
G1 X123.633 Y105 E.68289
G1 X124.024 Y103.696 E.15393
G1 X125.07 Y102.823 E.15393
G1 X126 Y102.633 E.10737
G1 X174 Y102.633 E5.42671
G1 X175.304 Y103.024 E.15393
G1 X176.177 Y104.07 E.15393
G1 X176.367 Y105 E.10737
G1 X176.367 Y195 E10.17508
G1 X175.976 Y196.304 E.15393
G1 X174.93 Y197.177 E.15393
G1 X174 Y197.367 E.10737
G1 X126 Y197.367 E5.42671
G1 X124.696 Y196.976 E.15393
G1 X123.823 Y195.93 E.15393
G1 X123.633 Y195 E.10737
G1 X123.633 Y111.12 E9.48315
SET_VELOCITY_LIMIT ACCEL=10000 ACCEL_TO_DECEL=10000
G1 E-1.8 F1800
M73 P16 R11
;WIPE_START
G1 F2647.715
G1 X123.633 Y109.12 E-.2
;WIPE_END
EXCLUDE_OBJECT_START NAME=Part_1_id_0_copy_0
G1 X123.966 Y116.745 Z.8 F30000
G1 X127.294 Y192.886 Z.8
G1 Z.4
G1 E2 F1800
SET_VELOCITY_LIMIT ACCEL=500 ACCEL_TO_DECEL=500
;TYPE:Inner wall
G1 F2400
G1 X127.294 Y106.294 E9.78975
G1 X172.706 Y106.294 E5.13408
G1 X172.706 Y193.706 E9.88245
G1 X127.294 Y193.706 E5.13408
G1 X127.294 Y192.966 E.08366
M73 P17 R11
SET_VELOCITY_LIMIT ACCEL=10000 ACCEL_TO_DECEL=10000
G1 X126.56 Y194.44 F30000
SET_VELOCITY_LIMIT ACCEL=500 ACCEL_TO_DECEL=500
;TYPE:Outer wall
G1 F2400
G1 X126.56 Y105.56 E10.04846
G1 X173.44 Y105.56 E5.30009
G1 X173.44 Y194.44 E10.04846
G1 X126.64 Y194.44 E5.29104
SET_VELOCITY_LIMIT ACCEL=10000 ACCEL_TO_DECEL=10000
G1 E-1.8 F1800
;WIPE_START
G1 F2400
G1 X126.638 Y192.44 E-.2
;WIPE_END
G1 X130.28 Y185.732 Z.8 F30000
G1 X172.486 Y108.001 Z.8
G1 Z.4
G1 E2 F1800
SET_VELOCITY_LIMIT ACCEL=500 ACCEL_TO_DECEL=500
;TYPE:Bottom surface
;WIDTH:0.821283
G1 F2643.097
G1 X171.329 Y106.845 E.18521
G1 X170.289 Y106.845 E.11779
G1 X172.155 Y108.711 E.29888
G1 X172.155 Y109.751 E.11779
G1 X169.249 Y106.845 E.46547
G1 X168.209 Y106.845 E.11779
G1 X172.155 Y110.791 E.63205
G1 X172.155 Y111.831 E.11779
M73 P18 R11
G1 X167.169 Y106.845 E.79863
G1 X166.129 Y106.845 E.11779
G1 X172.155 Y112.871 E.96522
G1 X172.155 Y113.911 E.11779
G1 X165.089 Y106.845 E1.1318
G1 X164.049 Y106.845 E.11779
G1 X172.155 Y114.951 E1.29838
G1 X172.155 Y115.991 E.11779
G1 X163.009 Y106.845 E1.46497
G1 X161.969 Y106.845 E.11779
G1 X172.155 Y117.031 E1.63155
G1 X172.155 Y118.072 E.11779
G1 X160.928 Y106.845 E1.79813
G1 X159.888 Y106.845 E.11779
G1 X172.155 Y119.112 E1.96472
G1 X172.155 Y120.152 E.11779
G1 X158.848 Y106.845 E2.1313
G1 X157.808 Y106.845 E.11779
G1 X172.155 Y121.192 E2.29788
G1 X172.155 Y122.232 E.11779
G1 X156.768 Y106.845 E2.46447
G1 X155.728 Y106.845 E.11779
G1 X172.155 Y123.272 E2.63105
G1 X172.155 Y124.312 E.11779
G1 X154.688 Y106.845 E2.79764
G1 X153.648 Y106.845 E.11779
G1 X172.155 Y125.352 E2.96422
G1 X172.155 Y126.392 E.11779
G1 X152.608 Y106.845 E3.1308
G1 X151.568 Y106.845 E.11779
G1 X172.155 Y127.432 E3.29739
G1 X172.155 Y128.472 E.11779
M73 P19 R11
G1 X150.528 Y106.845 E3.46397
G1 X149.488 Y106.845 E.11779
G1 X172.155 Y129.512 E3.63055
G1 X172.155 Y130.552 E.11779
G1 X148.448 Y106.845 E3.79714
G1 X147.408 Y106.845 E.11779
G1 X172.155 Y131.592 E3.96372
G1 X172.155 Y132.633 E.11779
G1 X146.367 Y106.845 E4.1303
G1 X145.327 Y106.845 E.11779
G1 X172.155 Y133.673 E4.29689
G1 X172.155 Y134.713 E.11779
G1 X144.287 Y106.845 E4.46347
G1 X143.247 Y106.845 E.11779
G1 X172.155 Y135.753 E4.63005
G1 X172.155 Y136.793 E.11779
G1 X142.207 Y106.845 E4.79664
G1 X141.167 Y106.845 E.11779
M73 P20 R11
G1 X172.155 Y137.833 E4.96322
G1 X172.155 Y138.873 E.11779
G1 X140.127 Y106.845 E5.1298
G1 X139.087 Y106.845 E.11779
G1 X172.155 Y139.913 E5.29639
G1 X172.155 Y140.953 E.11779
G1 X138.047 Y106.845 E5.46297
G1 X137.007 Y106.845 E.11779
G1 X172.155 Y141.993 E5.62955
G1 X172.155 Y143.033 E.11779
G1 X135.967 Y106.845 E5.79614
G1 X134.927 Y106.845 E.11779
M73 P20 R10
G1 X172.155 Y144.073 E5.96272
G1 X172.155 Y145.113 E.11779
M73 P21 R10
G1 X133.887 Y106.845 E6.1293
G1 X132.847 Y106.845 E.11779
G1 X172.155 Y146.153 E6.29589
G1 X172.155 Y147.194 E.11779
G1 X131.806 Y106.845 E6.46247
G1 X130.766 Y106.845 E.11779
G1 X172.155 Y148.234 E6.62905
G1 X172.155 Y149.274 E.11779
G1 X129.726 Y106.845 E6.79564
G1 X128.686 Y106.845 E.11779
G1 X172.155 Y150.314 E6.96222
G1 X172.155 Y151.354 E.11779
M73 P22 R10
G1 X127.845 Y107.043 E7.097
G1 X127.845 Y108.083 E.11779
G1 X172.155 Y152.394 E7.097
G1 X172.155 Y153.434 E.11779
G1 X127.845 Y109.124 E7.097
G1 X127.845 Y110.164 E.11779
G1 X172.155 Y154.474 E7.097
G1 X172.155 Y155.514 E.11779
G1 X127.845 Y111.204 E7.097
G1 X127.845 Y112.244 E.11779
M73 P23 R10
G1 X172.155 Y156.554 E7.097
G1 X172.155 Y157.594 E.11779
G1 X127.845 Y113.284 E7.097
G1 X127.845 Y114.324 E.11779
G1 X172.155 Y158.634 E7.097
G1 X172.155 Y159.674 E.11779
G1 X127.845 Y115.364 E7.097
G1 X127.845 Y116.404 E.11779
G1 X172.155 Y160.714 E7.097
G1 X172.155 Y161.755 E.11779
G1 X127.845 Y117.444 E7.097
M73 P24 R10
G1 X127.845 Y118.484 E.11779
G1 X172.155 Y162.795 E7.097
G1 X172.155 Y163.835 E.11779
G1 X127.845 Y119.524 E7.097
G1 X127.845 Y120.564 E.11779
G1 X172.155 Y164.875 E7.097
G1 X172.155 Y165.915 E.11779
G1 X127.845 Y121.604 E7.097
G1 X127.845 Y122.644 E.11779
G1 X172.155 Y166.955 E7.097
G1 X172.155 Y167.995 E.11779
M73 P25 R10
G1 X127.845 Y123.685 E7.097
G1 X127.845 Y124.725 E.11779
G1 X172.155 Y169.035 E7.097
G1 X172.155 Y170.075 E.11779
G1 X127.845 Y125.765 E7.097
G1 X127.845 Y126.805 E.11779
G1 X172.155 Y171.115 E7.097
G1 X172.155 Y172.155 E.11779
G1 X127.845 Y127.845 E7.097
G1 X127.845 Y128.885 E.11779
M73 P26 R10
G1 X172.155 Y173.195 E7.097
G1 X172.155 Y174.235 E.11779
G1 X127.845 Y129.925 E7.097
G1 X127.845 Y130.965 E.11779
G1 X172.155 Y175.275 E7.097
G1 X172.155 Y176.316 E.11779
G1 X127.845 Y132.005 E7.097
G1 X127.845 Y133.045 E.11779
G1 X172.155 Y177.356 E7.097
G1 X172.155 Y178.396 E.11779
G1 X127.845 Y134.085 E7.097
G1 X127.845 Y135.125 E.11779
M73 P27 R10
G1 X172.155 Y179.436 E7.097
G1 X172.155 Y180.476 E.11779
G1 X127.845 Y136.165 E7.097
G1 X127.845 Y137.205 E.11779
G1 X172.155 Y181.516 E7.097
G1 X172.155 Y182.556 E.11779
G1 X127.845 Y138.246 E7.097
G1 X127.845 Y139.286 E.11779
G1 X172.155 Y183.596 E7.097
G1 X172.155 Y184.636 E.11779
M73 P28 R10
G1 X127.845 Y140.326 E7.097
G1 X127.845 Y141.366 E.11779
M73 P28 R9
G1 X172.155 Y185.676 E7.097
G1 X172.155 Y186.716 E.11779
G1 X127.845 Y142.406 E7.097
G1 X127.845 Y143.446 E.11779
G1 X172.155 Y187.756 E7.097
G1 X172.155 Y188.796 E.11779
G1 X127.845 Y144.486 E7.097
G1 X127.845 Y145.526 E.11779
M73 P29 R9
G1 X172.155 Y189.836 E7.097
G1 X172.155 Y190.877 E.11779
G1 X127.845 Y146.566 E7.097
G1 X127.845 Y147.606 E.11779
G1 X172.155 Y191.917 E7.097
G1 X172.155 Y192.957 E.11779
G1 X127.845 Y148.646 E7.097
G1 X127.845 Y149.686 E.11779
G1 X171.314 Y193.155 E6.96221
G1 X170.274 Y193.155 E.11779
G1 X127.845 Y150.726 E6.79562
G1 X127.845 Y151.766 E.11779
M73 P30 R9
G1 X169.234 Y193.155 E6.62904
G1 X168.193 Y193.155 E.11779
G1 X127.845 Y152.807 E6.46246
G1 X127.845 Y153.847 E.11779
G1 X167.153 Y193.155 E6.29587
G1 X166.113 Y193.155 E.11779
G1 X127.845 Y154.887 E6.12929
G1 X127.845 Y155.927 E.11779
G1 X165.073 Y193.155 E5.96271
G1 X164.033 Y193.155 E.11779
G1 X127.845 Y156.967 E5.79612
G1 X127.845 Y158.007 E.11779
M73 P31 R9
G1 X162.993 Y193.155 E5.62954
G1 X161.953 Y193.155 E.11779
G1 X127.845 Y159.047 E5.46296
G1 X127.845 Y160.087 E.11779
G1 X160.913 Y193.155 E5.29637
G1 X159.873 Y193.155 E.11779
G1 X127.845 Y161.127 E5.12979
G1 X127.845 Y162.167 E.11779
G1 X158.833 Y193.155 E4.96321
G1 X157.793 Y193.155 E.11779
G1 X127.845 Y163.207 E4.79662
G1 X127.845 Y164.247 E.11779
G1 X156.753 Y193.155 E4.63004
G1 X155.713 Y193.155 E.11779
M73 P32 R9
G1 X127.845 Y165.287 E4.46346
G1 X127.845 Y166.327 E.11779
G1 X154.673 Y193.155 E4.29687
G1 X153.632 Y193.155 E.11779
G1 X127.845 Y167.368 E4.13029
G1 X127.845 Y168.408 E.11779
G1 X152.592 Y193.155 E3.96371
G1 X151.552 Y193.155 E.11779
G1 X127.845 Y169.448 E3.79712
G1 X127.845 Y170.488 E.11779
G1 X150.512 Y193.155 E3.63054
G1 X149.472 Y193.155 E.11779
G1 X127.845 Y171.528 E3.46396
G1 X127.845 Y172.568 E.11779
G1 X148.432 Y193.155 E3.29737
G1 X147.392 Y193.155 E.11779
G1 X127.845 Y173.608 E3.13079
G1 X127.845 Y174.648 E.11779
M73 P33 R9
G1 X146.352 Y193.155 E2.96421
G1 X145.312 Y193.155 E.11779
G1 X127.845 Y175.688 E2.79762
G1 X127.845 Y176.728 E.11779
G1 X144.272 Y193.155 E2.63104
G1 X143.232 Y193.155 E.11779
G1 X127.845 Y177.768 E2.46445
G1 X127.845 Y178.808 E.11779
G1 X142.192 Y193.155 E2.29787
G1 X141.152 Y193.155 E.11779
G1 X127.845 Y179.848 E2.13129
G1 X127.845 Y180.888 E.11779
G1 X140.112 Y193.155 E1.9647
G1 X139.071 Y193.155 E.11779
G1 X127.845 Y181.929 E1.79812
G1 X127.845 Y182.969 E.11779
G1 X138.031 Y193.155 E1.63154
G1 X136.991 Y193.155 E.11779
G1 X127.845 Y184.009 E1.46495
G1 X127.845 Y185.049 E.11779
G1 X135.951 Y193.155 E1.29837
G1 X134.911 Y193.155 E.11779
G1 X127.845 Y186.089 E1.13179
G1 X127.845 Y187.129 E.11779
G1 X133.871 Y193.155 E.9652
G1 X132.831 Y193.155 E.11779
G1 X127.845 Y188.169 E.79862
G1 X127.845 Y189.209 E.11779
G1 X131.791 Y193.155 E.63204
G1 X130.751 Y193.155 E.11779
G1 X127.845 Y190.249 E.46545
G1 X127.845 Y191.289 E.11779
G1 X129.711 Y193.155 E.29887
G1 X128.671 Y193.155 E.11779
G1 X127.514 Y191.999 E.1852
;LAYER_CHANGE
;Z:0.8
;HEIGHT:0.4
;BEFORE_LAYER_CHANGE
;0.8
G92 E0

G1 E-1.8 F1800
;WIPE_START
G1 F2643.097
G1 X128.671 Y193.155 E-.16353
G1 X129.035 Y193.155 E-.03647
M73 P34 R9
;WIPE_END
EXCLUDE_OBJECT_END NAME=Part_1_id_0_copy_0
;AFTER_LAYER_CHANGE
;0.8
;_SET_FAN_SPEED_CHANGING_LAYER
SET_VELOCITY_LIMIT ACCEL=10000 ACCEL_TO_DECEL=10000
M140 S105 ; set bed temperature
EXCLUDE_OBJECT_START NAME=Part_1_id_0_copy_0
G1 X127.144 Y193.036 Z1.2 F30000
G1 Z.8
G1 E2 F1800
SET_VELOCITY_LIMIT ACCEL=2000 ACCEL_TO_DECEL=2000
;TYPE:Inner wall
;WIDTH:0.82
G1 F2647.715
G1 X127.144 Y106.144 E9.82366
G1 X172.856 Y106.144 E5.168
G1 X172.856 Y193.856 E9.91637
G1 X127.144 Y193.856 E5.168
G1 X127.144 Y193.116 E.08366
G1 X126.41 Y194.59 F30000
;TYPE:Outer wall
G1 F2647.715
G1 X126.41 Y105.41 E10.08237
G1 X173.59 Y105.41 E5.334
M73 P35 R9
G1 X173.59 Y194.59 E10.08237
G1 X126.49 Y194.59 E5.32496
M73 P35 R8
SET_VELOCITY_LIMIT ACCEL=10000 ACCEL_TO_DECEL=10000
G1 E-1.8 F1800
;WIPE_START
G1 F2647.715
G1 X126.488 Y192.59 E-.2
;WIPE_END
G1 X134.118 Y192.774 Z1.2 F30000
G1 X171.249 Y193.672 Z1.2
G1 Z.8
G1 E2 F1800
;TYPE:Internal solid infill
;WIDTH:0.82
G1 F2647.716
G1 X172.342 Y192.58 E.17471
G1 X172.342 Y191.541 E.11738
G1 X170.541 Y193.342 E.28789
G1 X169.503 Y193.342 E.11738
G1 X172.342 Y190.503 E.45389
G1 X172.342 Y189.465 E.11738
G1 X168.465 Y193.342 E.6199
G1 X167.427 Y193.342 E.11738
G1 X172.342 Y188.427 E.7859
G1 X172.342 Y187.388 E.11738
G1 X166.388 Y193.342 E.9519
G1 X165.35 Y193.342 E.11738
G1 X172.342 Y186.35 E1.11791
G1 X172.342 Y185.312 E.11738
G1 X164.312 Y193.342 E1.28391
G1 X163.274 Y193.342 E.11738
G1 X172.342 Y184.274 E1.44991
G1 X172.342 Y183.235 E.11738
G1 X162.235 Y193.342 E1.61591
G1 X161.197 Y193.342 E.11738
G1 X172.342 Y182.197 E1.78192
G1 X172.342 Y181.159 E.11738
G1 X160.159 Y193.342 E1.94792
G1 X159.12 Y193.342 E.11738
G1 X172.342 Y180.12 E2.11392
G1 X172.342 Y179.082 E.11738
G1 X158.082 Y193.342 E2.27992
G1 X157.044 Y193.342 E.11738
M73 P36 R8
G1 X172.342 Y178.044 E2.44593
G1 X172.342 Y177.006 E.11738
G1 X156.006 Y193.342 E2.61193
G1 X154.967 Y193.342 E.11738
G1 X172.342 Y175.967 E2.77793
G1 X172.342 Y174.929 E.11738
G1 X153.929 Y193.342 E2.94394
G1 X152.891 Y193.342 E.11738
G1 X172.342 Y173.891 E3.10994
G1 X172.342 Y172.853 E.11738
G1 X151.853 Y193.342 E3.27594
G1 X150.814 Y193.342 E.11738
G1 X172.342 Y171.814 E3.44194
G1 X172.342 Y170.776 E.11738
G1 X149.776 Y193.342 E3.60795
G1 X148.738 Y193.342 E.11738
G1 X172.342 Y169.738 E3.77395
G1 X172.342 Y168.7 E.11738
G1 X147.7 Y193.342 E3.93995
G1 X146.661 Y193.342 E.11738
G1 X172.342 Y167.661 E4.10595
G1 X172.342 Y166.623 E.11738
G1 X145.623 Y193.342 E4.27196
G1 X144.585 Y193.342 E.11738
M73 P37 R8
G1 X172.342 Y165.585 E4.43796
G1 X172.342 Y164.547 E.11738
G1 X143.547 Y193.342 E4.60396
G1 X142.508 Y193.342 E.11738
G1 X172.342 Y163.508 E4.76997
G1 X172.342 Y162.47 E.11738
G1 X141.47 Y193.342 E4.93597
G1 X140.432 Y193.342 E.11738
G1 X172.342 Y161.432 E5.10197
G1 X172.342 Y160.394 E.11738
G1 X139.394 Y193.342 E5.26797
G1 X138.355 Y193.342 E.11738
G1 X172.342 Y159.355 E5.43398
G1 X172.342 Y158.317 E.11738
G1 X137.317 Y193.342 E5.59998
G1 X136.279 Y193.342 E.11738
M73 P38 R8
G1 X172.342 Y157.279 E5.76598
G1 X172.342 Y156.241 E.11738
G1 X135.241 Y193.342 E5.93198
G1 X134.202 Y193.342 E.11738
G1 X172.342 Y155.202 E6.09799
G1 X172.342 Y154.164 E.11738
G1 X133.164 Y193.342 E6.26399
G1 X132.126 Y193.342 E.11738
G1 X172.342 Y153.126 E6.42999
G1 X172.342 Y152.088 E.11738
G1 X131.088 Y193.342 E6.596
G1 X130.049 Y193.342 E.11738
G1 X172.342 Y151.049 E6.762
G1 X172.342 Y150.011 E.11738
M73 P39 R8
G1 X129.011 Y193.342 E6.928
G1 X127.973 Y193.342 E.11738
G1 X172.342 Y148.973 E7.094
G1 X172.342 Y147.935 E.11738
G1 X127.658 Y192.618 E7.14432
G1 X127.658 Y191.58 E.11738
G1 X172.342 Y146.896 E7.14432
G1 X172.342 Y145.858 E.11738
G1 X127.658 Y190.542 E7.14432
G1 X127.658 Y189.504 E.11738
G1 X172.342 Y144.82 E7.14432
G1 X172.342 Y143.781 E.11738
M73 P40 R8
G1 X127.658 Y188.465 E7.14432
G1 X127.658 Y187.427 E.11738
G1 X172.342 Y142.743 E7.14432
G1 X172.342 Y141.705 E.11738
G1 X127.658 Y186.389 E7.14432
G1 X127.658 Y185.351 E.11738
G1 X172.342 Y140.667 E7.14432
G1 X172.342 Y139.628 E.11738
G1 X127.658 Y184.312 E7.14432
G1 X127.658 Y183.274 E.11738
M73 P41 R8
G1 X172.342 Y138.59 E7.14432
G1 X172.342 Y137.552 E.11738
G1 X127.658 Y182.236 E7.14432
G1 X127.658 Y181.198 E.11738
G1 X172.342 Y136.514 E7.14432
G1 X172.342 Y135.475 E.11738
G1 X127.658 Y180.159 E7.14432
G1 X127.658 Y179.121 E.11738
G1 X172.342 Y134.437 E7.14432
G1 X172.342 Y133.399 E.11738
G1 X127.658 Y178.083 E7.14432
G1 X127.658 Y177.044 E.11738
M73 P42 R8
G1 X172.342 Y132.361 E7.14432
G1 X172.342 Y131.322 E.11738
G1 X127.658 Y176.006 E7.14432
G1 X127.658 Y174.968 E.11738
G1 X172.342 Y130.284 E7.14432
G1 X172.342 Y129.246 E.11738
M73 P42 R7
G1 X127.658 Y173.93 E7.14432
G1 X127.658 Y172.891 E.11738
G1 X172.342 Y128.208 E7.14432
G1 X172.342 Y127.169 E.11738
G1 X127.658 Y171.853 E7.14432
G1 X127.658 Y170.815 E.11738
M73 P43 R7
G1 X172.342 Y126.131 E7.14432
G1 X172.342 Y125.093 E.11738
